antibot/app/images/dist/protect-google-icon.svg

<svg width="30" height="30" viewBox="0 0 30 30" fill="none" xmlns="http://www.w3.org/2000/svg">
<g clip-path="url(#clip0_9593_16532)">
<path d="M15.3066 12.2734V18.0825H23.5442C23.1825 19.9507 22.097 21.5326 20.469 22.5962L25.4365 26.3735C28.3308 23.7554 30.0006 19.9099 30.0006 15.3418C30.0006 14.2782 29.9032 13.2553 29.7223 12.2736L15.3066 12.2734Z" fill="#4285F4"/>
<path d="M6.72874 17.8555L5.60837 18.6959L1.64258 21.7232C4.16115 26.6186 9.32317 30.0004 15.3065 30.0004C19.4391 30.0004 22.9038 28.6641 25.4364 26.3732L20.4688 22.5959C19.1052 23.4959 17.3658 24.0414 15.3065 24.0414C11.3269 24.0414 7.94567 21.4096 6.735 17.8641L6.72874 17.8555Z" fill="#34A853"/>
<path d="M1.64183 8.27734C0.598274 10.2954 0 12.5727 0 15C0 17.4272 0.598274 19.7045 1.64183 21.7226C1.64183 21.7362 6.73474 17.8499 6.73474 17.8499C6.42861 16.9499 6.24767 15.9954 6.24767 14.9998C6.24767 14.0042 6.42861 13.0498 6.73474 12.1498L1.64183 8.27734Z" fill="#FBBC05"/>
<path d="M15.3068 5.97272C17.561 5.97272 19.5647 6.73634 21.1649 8.20909L25.5481 3.91369C22.8903 1.48646 19.4396 0 15.3068 0C9.32348 0 4.16115 3.36818 1.64258 8.27728L6.73533 12.15C7.94585 8.60452 11.3272 5.97272 15.3068 5.97272Z" fill="#EA4335"/>
</g>
<defs>
<clipPath id="clip0_9593_16532">
<rect width="30" height="30" fill="white"/>
</clipPath>
</defs>
</svg>

<svg width="30" height="30" fill="none" xmlns="http://www.w3.org/2000/svg"><g clip-path="url(#a)"><path d="M15.307 12.273v5.81h8.237c-.361 1.868-1.447 3.45-3.075 4.513l4.967 3.777c2.895-2.618 4.565-6.463 4.565-11.031a16.9 16.9 0 0 0-.279-3.068H15.307Z" fill="#4285F4"/><path d="m6.729 17.855-1.12.84-3.966 3.028C4.16 26.62 9.323 30 15.307 30c4.132 0 7.597-1.336 10.13-3.627l-4.968-3.777c-1.364.9-3.103 1.445-5.163 1.445-3.98 0-7.36-2.631-8.571-6.177l-.006-.009Z" fill="#34A853"/><path d="M1.642 8.277a14.575 14.575 0 0 0 0 13.446c0 .013 5.093-3.873 5.093-3.873A8.826 8.826 0 0 1 6.248 15c0-.996.18-1.95.487-2.85L1.642 8.277Z" fill="#FBBC05"/><path d="M15.307 5.973c2.254 0 4.258.763 5.858 2.236l4.383-4.295C22.89 1.486 19.44 0 15.307 0 9.323 0 4.16 3.368 1.643 8.277l5.092 3.873c1.21-3.545 4.592-6.177 8.572-6.177Z" fill="#EA4335"/></g><defs><clipPath id="a"><path fill="#fff" d="M0 0h30v30H0z"/></clipPath></defs></svg>
